X: 347
T: Sirba "Totz la Zhok" (Everybody Dance)
R: sirba
Q: 1/4=150
B: German Goldenshteyn "Shpilt klezmorimlach klingen zoln di gesalach" New York 2003 v.3 #47
Z: 2013 John Chambers <jc:trillian.mit.edu>
M: 2/4
L: 1/8
K: Em
zEGB \
|: e4- | e^d ec | B4- | BE GB |\
~e>^d ef | (3(gfe) (3(^dcB) | (A3 c) | (3(cBA) (3(GFE) |
F4- | FG AB | c4- | cA Bc |\
(3(BcB) (3(ABA) |[1 (3(AGF) GA | B4- | BE GB :|\
[2 (3(GAG) (3(FGF) | E4- | E2 z2 ||
|: (3(EFG) (3(EFG) | (3(AGF) Ez | (3(ABc) (3(ABc) | (3(dcB) Az |\
B>c ^d>e | (3(fe^d) (3(cB^A) | B3 ^A | (3(cB^A) (3(GFE) |
(3(EFG) (3(EFG) | (3(AGF) Ez | (3(ABc) (3(ABc) | (3(dcB) Az |\
B>c ^d>e |(3(fe^d) (3(cBA) | G>A F>G | E2 z2 :|
